X:1
T:A Shropshire Lad
T:Tune Traditionnal
T:George Butterworth 
T:2 - When I was One-and-Twenty
%%score 1 { ( 2 4 ) | ( 3 5 ) }
L:1/8
Q:1/4=140
M:2/2
K:D
V:1 treble-8 nm="Voice"
V:2 treble nm="Pianoforte"
V:4 treble 
V:3 bass 
V:5 bass 
V:1
"^Vivace non trppo"!p! D2 | A2 A2 G2 E2 | C4 D2 E2 | G2 G2 F2 E2 | D6!f! D2 | G2 G2 A2 B2 | %6
w: When|I was one- and-|twen- ty I|heard a wise man|say, “Give|crowns and pounds and|
 c4 A2 A2 | d2 d2 c2 B2 | A4 z2 A2 | G3 G A2 B2 | c4 A2 A2 | d2 d2 (BA) G2 | c6 B2 | %13
w: gui- neas But|not your heart a-|way; Give|pearls a- way and|ru- bies But|keep your fan- * cy|free”, But|
!p! A2 A2 G2 E2 | C4 D2 E2 | G2 G2 F2 E2 | D8- | D2 z2 z2!p! D2 | A2 A2 G2 E2 | C4 D2 E2 | %20
w: I was one- and-|twen- ty, No|use to talk to|me.|_ When|I was one- and-|twen- ty, I|
 G2 G2 F2 E2 | D6!f! D2 | G2 G2 A2 B2 | c4 A2 A2 | d2 d2 c2 B2 | A4 z2 A2 | G2 G2 A2 A2 | %27
w: heard him say a-|gain, “The|heart out of the|bo- som Was|ne- ver given in|vain; “Tis|paid with sighs a-|
[Q:1/4=110]"^Allergando" c4 A2 A2 | d2 d2 BA G2 | !fermata!c8- | %30
w: plen- ty And|sold for end- * less|rue,”|
[Q:1/4=140]"_a tempo"[Q:1/4=140]"^a tempo" c2 z2 z2!p! B2 | A2 A2 G2 E2 | C4 D2"^a piacere" E2 | %33
w: _ And|I am two- and-|twen- ty, And|
 (G4 F2) E2 | (F4 E2) D2 | E8- | E2 z2[Q:1/4=89]"^T""^Lento" z4 | z8 |!pp! D8 | D8 |] %40
w: oh, _ 'tis|true, _ 'tis|true,|_||'tis|true.|
V:2
 z2 | ([A,D]4 [B,E]4 | F6 E2) | ([G,C]4 D2 C2 | B,6) z2 | z4 z2 .[DFB]2 | [CEc]8 | %7
 ([F,A,F]6 [G,B,G]2 | [A,CA]4) z4 | z4 z2!mf! .[DGB]2 | [CAc]8 |!<(! [F,A,F]6 [G,B,G]2!<)! | %12
!>(! [A,A]2 [G,G]2 .[E,E]2!>)! .C2 | ([A,D]4 [B,E]4 | F6 E2) | ([DG]4 [CF]2 [B,E]2 | [A,D]8-) | %17
 [A,D]2 z2 z4 | ([A,D]4 [B,E]4 | F6 E2) | ([G,C]4 D2 C2 | B,6) z2 | z4 z2 ([DFB]2 | [CEc]8) | %24
 ([F,A,F]6 [G,B,G]2 | [A,CA]4) z4 | z4 z2 ([DGB]2 | [CAc]8) |!<(! [F,A,F]6 [G,B,G]2!<)! | %29
 !fermata![A,CA]8- |!>(! [A,A]2 [G,G]2 [E,E]2!>)!!p! C2 | [A,D]4 [B,E]4 | F6"_colla  voce" E2 | %33
 G4 F2 E2 | C8 | E8- | E2 z2"_Lento" [A,C]4 | [A,D]8 | C4 B,4 | [F,A,]8 |] %40
V:3
 z2 |!p! ([F,,D,]4 [G,,E,]4 | F,6 E,2) | ([E,,C,]4 [F,,D,]4 | [G,,D,]6) z2 | z4 z2!mf! .[D,,D,]2 | %6
 [A,,,A,,]8- | [A,,,A,,]8- | [A,,,A,,]4 z4 | z4 z2 .[G,,,G,,]2 | [F,,,F,,]8- | [F,,,F,,]8 | %12
 [E,,,E,,]4 z2 .C,2 |!p! ([F,,D,]4 [G,,E,]4 | F,6 E,2) | G,8 | [D,F,]8- | [D,F,]2 z2 z4 | %18
!p! ([F,,D,]4 [G,,E,]4 | F,6 E,2) | ([E,,C,]4 [F,,D,]4 | [G,,D,]6) z2 | z4 z2!mf! [D,,D,]2 | %23
 [A,,,A,,]8- | [A,,,A,,]8- | [A,,,A,,]4 z4 | z4 z2 [G,,,G,,]2 | [F,,,F,,]8- | [F,,,F,,]8 | %29
 !fermata![E,,,E,,]8- | [E,,,E,,]4 z4 | [F,,D,]4 [G,,E,]4 | F,6 E,2 | G,8 | F,8 | E,8- | %36
 [G,,E,]2 z2!pp! [A,,E,]4 | [F,,D,]8 | [G,,D,]8 | [D,,D,]8 |] %40
V:4
 x2 | x8 | C8 | x4 A,4 | G,6 x2 | x8 | x8 | x8 | x8 | x8 | x8 | x8 | C4 x4 | x8 | C8 | x8 | x8 | %17
 x8 | x8 | C8 | x4 A,4 | G,6 x2 | x8 | x8 | x8 | x8 | x8 | x8 | x8 | x8 | C4 x4 | x8 | C8 | D6 x2 | %34
 F4 x4 | B,8- | B,2 z2 x4 | x8 | G,8 | x8 |] %40
V:5
 x2 | x8 | A,,8 | x8 | x8 | x8 | x8 | x8 | x8 | x8 | x8 | x8 | x8 | x8 | A,,8 | B,,4 C,4 | x8 | %17
 x8 | x8 | A,,8 | x8 | x8 | x8 | x8 | x8 | x8 | x8 | x8 | x8 | x8 | x8 | x8 | A,,8 | B,,6 C,2 | %34
 A,,8 | G,,8- | x8 | x8 | x8 | x8 |] %40

